src/actions/16/boundingbox_top.svg

<svg width="16" height="16" version="1.1" xmlns="http://www.w3.org/2000/svg" xmlns:xlink="http://www.w3.org/1999/xlink">
 <path d="m1.5 4a0.50005 0.50005 0 0 0-0.5 0.5v2a0.50005 0.50005 0 0 0 0.5 0.5h3.2324a0.50005 0.50005 0 0 0 0.47852-0.64258c-0.083102-0.27814-0.12484-0.56714-0.125-0.85742 1.631e-4 -0.29028 0.041898-0.57929 0.125-0.85742a0.50005 0.50005 0 0 0-0.47852-0.64258zm9.9395 0a0.50005 0.50005 0 0 0-0.47852 0.64258c0.08292 0.27752 0.12465 0.56584 0.125 0.85547-7.07e-4 0.29037-0.04329 0.57937-0.12695 0.85742a0.50005 0.50005 0 0 0 0.47852 0.64453h3.0625a0.50005 0.50005 0 0 0 0.5-0.5v-2a0.50005 0.50005 0 0 0-0.5-0.5zm-9.4395 1h2.1602c-0.021471 0.1676-0.074124 0.33059-0.074219 0.5 9.52e-5 0.16941 0.052748 0.3324 0.074219 0.5h-2.1602zm10.012 0h1.9883v1h-1.9883c0.02162-0.16694 0.07381-0.32928 0.07422-0.49805a0.50005 0.50005 0 0 0 0-2e-3c-9.6e-5 -0.16941-0.05275-0.3324-0.07422-0.5z" color="#000000" fill="#363636" stroke-linejoin="round" style="-inkscape-stroke:none"/>
 <path d="M 8,1 A 4.5,4.5 0 0 0 3.5,5.5 4.5,4.5 0 0 0 8,10 4.5,4.5 0 0 0 12.5,5.5 4.5,4.5 0 0 0 8,1 Z M 8,3 A 2.5,2.5 0 0 1 10.5,5.5 2.5,2.5 0 0 1 8,8 2.5,2.5 0 0 1 5.5,5.5 2.5,2.5 0 0 1 8,3 Z" fill="#61a1ff"/>
</svg>

<svg xmlns="http://www.w3.org/2000/svg" width="16" height="16">
    <path fill="#050505" fill-opacity=".7" d="M1.5 4a.5.5 0 0 0-.5.5v2a.5.5 0 0 0 .5.5h3.232a.5.5 0 0 0 .479-.643 3.001 3.001 0 0 1 0-1.714A.5.5 0 0 0 4.732 4zm9.94 0a.5.5 0 0 0-.479.643 3.001 3.001 0 0 1-.002 1.712.5.5 0 0 0 .479.645H14.5a.5.5 0 0 0 .5-.5v-2a.5.5 0 0 0-.5-.5zM2 5h2.16c-.021.168-.074.33-.074.5 0 .17.053.332.074.5H2zm10.012 0H14v1h-1.988c.022-.167.074-.33.074-.498a.5.5 0 0 0 0-.002c0-.17-.053-.332-.074-.5z" color="#000" style="-inkscape-stroke:none"/>
    <path fill="#a0b6cb" d="M8 1a4.5 4.5 0 0 0-4.5 4.5A4.5 4.5 0 0 0 8 10a4.5 4.5 0 0 0 4.5-4.5A4.5 4.5 0 0 0 8 1Zm0 2a2.5 2.5 0 0 1 2.5 2.5A2.5 2.5 0 0 1 8 8a2.5 2.5 0 0 1-2.5-2.5A2.5 2.5 0 0 1 8 3Z"/>
</svg>
